resources/style/maximize.svg

<?xml version="1.0" encoding="iso-8859-1"?>
<!DOCTYPE svg PUBLIC "-//W3C//DTD SVG 20000303 Stylable//EN"
"http://www.w3.org/TR/2000/03/WD-SVG-20000303/DTD/svg-20000303-stylable.dtd">
<!-- Generator: --> 
<svg width="512pt" height="512pt" viewBox="0 0 512 512">
	<g  id="FRAME_0" style="visibility:visible" fill-rule="evenodd">
		<path style="fill:rgb(255,255,255);opacity:1;stroke-width:0"
		 d="M401.000000,401.250000 L401.000000,110.000000 L110.000000,110.000000 L110.000000,401.250000 L401.000000,401.250000 M427.000000,449.750000 L84.250000,449.750000 Q77.500000,449.750000 68.750000,443.250000 L64.500000,438.000000 L62.250000,432.750000 L61.250000,427.000000 L61.250000,89.250000 Q59.250000,80.000000 68.250000,68.500000 L73.000000,64.750000 L78.250000,62.500000 L84.000000,61.500000 L426.750000,61.500000 Q433.500000,61.000000 442.250000,68.000000 Q446.500000,70.250000 449.750000,84.250000 L449.750000,425.500000 Q448.000000,446.750000 427.000000,449.750000 "/>
		<path style="stroke:rgb(0,0,0);stroke-width:2.150000;stroke-linecap:round;stroke-linejoin:round;fill:none"
		 d="M110.000000,401.250000 L110.000000,110.000000 L401.000000,110.000000 L401.000000,401.250000 L110.000000,401.250000 		"/>
		<path style="stroke:rgb(0,0,0);stroke-width:2.150000;stroke-linecap:round;stroke-linejoin:round;fill:none"
		 d="M84.250000,449.750000 Q77.500000,449.750000 68.750000,443.250000 L64.500000,438.000000 L62.250000,432.750000 L61.250000,427.000000 L61.250000,89.250000 Q59.250000,80.000000 68.250000,68.500000 L73.000000,64.750000 L78.250000,62.500000 L84.000000,61.500000 L426.750000,61.500000 Q433.500000,61.000000 442.250000,68.000000 Q446.500000,70.250000 449.750000,84.250000 L449.750000,425.500000 Q448.000000,446.750000 427.000000,449.750000 L84.250000,449.750000 		"/>
	</g>
</svg>

<?xml version="1.0" encoding="UTF-8" standalone="no"?>
<!-- Generator: -->

<svg
   width="512pt"
   height="512pt"
   viewBox="0 0 512 512"
   version="1.1"
   id="svg1143"
   sodipodi:docname="maximize.svg"
   inkscape:version="1.1 (c68e22c387, 2021-05-23)"
   xmlns:inkscape="http://www.inkscape.org/namespaces/inkscape"
   xmlns:sodipodi="http://sodipodi.sourceforge.net/DTD/sodipodi-0.dtd"
   xmlns="http://www.w3.org/2000/svg"
   xmlns:svg="http://www.w3.org/2000/svg">
  <defs
     id="defs1147" />
  <sodipodi:namedview
     id="namedview1145"
     pagecolor="#505050"
     bordercolor="#eeeeee"
     borderopacity="1"
     inkscape:pageshadow="0"
     inkscape:pageopacity="0"
     inkscape:pagecheckerboard="0"
     inkscape:document-units="pt"
     showgrid="false"
     inkscape:zoom="0.27575684"
     inkscape:cx="-727.08986"
     inkscape:cy="745.22178"
     inkscape:window-width="1920"
     inkscape:window-height="1147"
     inkscape:window-x="-8"
     inkscape:window-y="-8"
     inkscape:window-maximized="1"
     inkscape:current-layer="svg1143" />
  <g
     id="FRAME_0"
     style="visibility:visible"
     fill-rule="evenodd"
     transform="matrix(1.2751596,0,0,1.2751596,-70.253298,-70.333028)">
    <path
       style="opacity:1;fill:#ffffff;stroke-width:0"
       d="M 401,401.25 V 110 H 110 v 291.25 h 291 m 26,48.5 H 84.25 q -6.75,0 -15.5,-6.5 L 64.5,438 62.25,432.75 61.25,427 V 89.25 q -2,-9.25 7,-20.75 L 73,64.75 78.25,62.5 84,61.5 h 342.75 q 6.75,-0.5 15.5,6.5 4.25,2.25 7.5,16.25 V 425.5 Q 448,446.75 427,449.75"
       id="path1136" />
    <path
       style="fill:none;stroke:#000000;stroke-width:2.15;stroke-linecap:round;stroke-linejoin:round"
       d="M 110,401.25 V 110 H 401 V 401.25 H 110"
       id="path1138" />
    <path
       style="fill:none;stroke:#000000;stroke-width:2.15;stroke-linecap:round;stroke-linejoin:round"
       d="m 84.25,449.75 q -6.75,0 -15.5,-6.5 L 64.5,438 62.25,432.75 61.25,427 V 89.25 q -2,-9.25 7,-20.75 L 73,64.75 78.25,62.5 84,61.5 h 342.75 q 6.75,-0.5 15.5,6.5 4.25,2.25 7.5,16.25 V 425.5 Q 448,446.75 427,449.75 H 84.25"
       id="path1140" />
  </g>
</svg>
